X:10
T:Brennan's Reel
M:C|
R:Reel
S:phelan-2/35
L:1/8
K:D
    D2FA d2ed | cdBd AFFF | B2GB ABFA | BFAF E2FE  |
    D2FA d2ef | edBd AFFF | BAGB ABdf | afge      [1 d4 :|2 d3 |:
e | f2df efde | fedB AFFF | B2GB ABFA | BFAF E2de  |
    f2df efde | fedB AFFF | BAGB ABdf | afge d3   :|

